symbols/web/looks_one/materialsymbolsoutlined/looks_one_wght300grad200_40px.svg

<svg xmlns="http://www.w3.org/2000/svg" height="40" width="40"><path d="M20.333 28.417h2.834V11.583h-6.292v2.792h3.458ZM8.458 34.875q-1.375 0-2.354-.979-.979-.979-.979-2.354V8.458q0-1.375.979-2.354.979-.979 2.354-.979h23.084q1.375 0 2.354.979.979.979.979 2.354v23.084q0 1.375-.979 2.354-.979.979-2.354.979Zm0-2.792h23.084q.208 0 .375-.166.166-.167.166-.375V8.458q0-.208-.166-.375-.167-.166-.375-.166H8.458q-.208 0-.375.166-.166.167-.166.375v23.084q0 .208.166.375.167.166.375.166ZM7.917 7.917v24.166V7.917Z"/></svg>

<svg xmlns="http://www.w3.org/2000/svg" height="40" width="40"><path d="M20.333 28.417H23.167V11.583H16.875V14.375H20.333ZM8.458 34.875Q7.083 34.875 6.104 33.896Q5.125 32.917 5.125 31.542V8.458Q5.125 7.083 6.104 6.104Q7.083 5.125 8.458 5.125H31.542Q32.917 5.125 33.896 6.104Q34.875 7.083 34.875 8.458V31.542Q34.875 32.917 33.896 33.896Q32.917 34.875 31.542 34.875ZM8.458 32.083H31.542Q31.75 32.083 31.917 31.917Q32.083 31.75 32.083 31.542V8.458Q32.083 8.25 31.917 8.083Q31.75 7.917 31.542 7.917H8.458Q8.25 7.917 8.083 8.083Q7.917 8.25 7.917 8.458V31.542Q7.917 31.75 8.083 31.917Q8.25 32.083 8.458 32.083ZM7.917 7.917Q7.917 7.917 7.917 8.063Q7.917 8.208 7.917 8.458V31.542Q7.917 31.792 7.917 31.938Q7.917 32.083 7.917 32.083Q7.917 32.083 7.917 31.938Q7.917 31.792 7.917 31.542V8.458Q7.917 8.208 7.917 8.063Q7.917 7.917 7.917 7.917Z"/></svg>
